public/assets/images/brand/03.svg

<svg width="121" height="29" viewBox="0 0 121 29" fill="none" xmlns="http://www.w3.org/2000/svg">
<g clip-path="url(#clip0_21_50)">
<path d="M106.287 9.92761C106.958 9.92761 107.513 9.58822 107.591 9.14826L108.256 1.81987C108.256 1.09708 107.384 0.5 106.287 0.5C105.189 0.5 104.324 1.09708 104.324 1.81987L104.989 9.14826C105.06 9.58193 105.616 9.92761 106.287 9.92761ZM102.22 12.2154C102.555 11.6497 102.53 11.0086 102.175 10.7258L95.99 6.50224C95.3444 6.13771 94.3825 6.57767 93.8338 7.50157C93.285 8.42548 93.3819 9.45623 94.021 9.81448L100.871 12.9193C101.303 13.0764 101.884 12.7747 102.22 12.2154ZM110.354 12.2091C110.69 12.7747 111.271 13.0764 111.703 12.9193L118.553 9.81448C119.198 9.44994 119.289 8.41919 118.746 7.50157C118.198 6.57767 117.229 6.144 116.59 6.50224L110.406 10.7258C110.051 11.0086 110.025 11.6497 110.354 12.2091ZM106.287 19.0787C106.958 19.0787 107.513 19.4181 107.591 19.858L108.256 27.1801C108.256 27.9092 107.384 28.5 106.287 28.5C105.189 28.5 104.324 27.9092 104.324 27.1801L104.989 19.858C105.06 19.4181 105.616 19.0787 106.287 19.0787ZM110.354 16.7909C110.69 16.2253 111.271 15.9299 111.703 16.0807L118.553 19.1855C119.198 19.5501 119.289 20.5808 118.746 21.5047C118.198 22.4223 117.229 22.8623 116.59 22.504L110.406 18.2868C110.051 17.9914 110.025 17.3566 110.354 16.7909ZM102.22 16.7846C102.555 17.3503 102.53 17.9914 102.175 18.2742L95.99 22.4915C95.3444 22.856 94.3825 22.416 93.8338 21.4921C93.285 20.5682 93.3819 19.5375 94.021 19.173L100.871 16.0681C101.303 15.9236 101.884 16.219 102.22 16.7846Z" fill="#050D20"/>
<path d="M67.2753 18.2625C67.2753 18.4887 67.2559 18.7213 67.1914 18.9224C66.9267 19.7709 66.0293 20.4811 64.906 20.4811C63.97 20.4811 63.2211 19.9594 63.2211 18.8658C63.2211 17.1877 65.1191 16.7226 67.2753 16.7352V18.2625ZM70.6581 15.3399C70.6581 12.5745 69.4444 10.1421 65.345 10.1421C63.2405 10.1421 61.5684 10.7204 60.6582 11.2295L61.3231 13.4544C62.1559 12.939 63.4858 12.5179 64.7447 12.5179C66.8234 12.5116 67.1656 13.6681 67.1656 14.4034V14.5794C62.6336 14.5731 59.7608 16.1004 59.7608 19.2178C59.7608 21.1222 61.2198 22.9008 63.7569 22.9008C65.3192 22.9008 66.6233 22.2975 67.4044 21.3233H67.4819C67.4819 21.3233 67.9983 23.4351 70.8518 22.6243C70.7033 21.7444 70.6517 20.8079 70.6517 19.6829L70.6581 15.3399ZM0 6.37738C0 6.37738 2.96319 18.1996 3.43446 20.1166C3.98965 22.354 4.98383 23.1837 7.85018 22.6243L9.70298 15.2959C10.1743 13.4732 10.4841 12.1785 10.7875 10.3244H10.8392C11.0522 12.1974 11.3557 13.4795 11.7365 15.3022C11.7365 15.3022 12.4919 18.627 12.8728 20.3742C13.2601 22.1215 14.3382 23.2214 17.1465 22.6243L21.5557 6.37738H17.9986L16.4944 13.4041C16.0877 15.4467 15.7197 17.0494 15.4421 18.9161H15.3905C15.1323 17.062 14.803 15.5284 14.3963 13.5361L12.8276 6.37738H9.12197L7.44347 13.3538C6.96575 15.4782 6.52676 17.1877 6.2427 18.9915H6.19106C5.90055 17.2883 5.5132 15.1388 5.10004 13.0836C5.10004 13.0836 4.10585 8.0932 3.75724 6.37109L0 6.37738ZM28.2891 18.2625C28.2891 18.4887 28.2697 18.7213 28.2051 18.9224C27.9405 19.7709 27.0431 20.4811 25.9198 20.4811C24.9837 20.4811 24.2349 19.9594 24.2349 18.8658C24.2349 17.1877 26.1328 16.7226 28.2891 16.7352V18.2625ZM31.6783 15.3399C31.6783 12.5745 30.4647 10.1421 26.3653 10.1421C24.2607 10.1421 22.5886 10.7204 21.6784 11.2295L22.3433 13.4544C23.1761 12.939 24.506 12.5179 25.7649 12.5179C27.8501 12.5116 28.1858 13.6681 28.1858 14.4034V14.5794C23.6474 14.5731 20.781 16.1004 20.781 19.2178C20.781 21.1222 22.24 22.9008 24.7771 22.9008C26.3394 22.9008 27.6435 22.2975 28.4246 21.3233H28.5021C28.5021 21.3233 29.0186 23.4351 31.8785 22.6243C31.73 21.7444 31.6783 20.8079 31.6783 19.6829V15.3399ZM37.3271 19.1738V6.37738H33.9378V22.6243H37.3271V19.1738ZM81.6716 6.37738V18.363C81.6716 20.016 81.9944 21.1724 82.6722 21.8827C83.2726 22.5049 84.2539 22.9008 85.4289 22.9008C86.4295 22.9008 87.4172 22.7123 87.882 22.5489L87.8368 19.972C87.4882 20.0537 87.0944 20.1228 86.5521 20.1228C85.3966 20.1228 85.0092 19.4001 85.0092 17.9168V13.3287H87.9595V10.2176H85.0092V6.37738H81.6716ZM72.9176 10.4187V22.6243H76.4166V16.3769C76.4166 16.0375 76.436 15.7421 76.4941 15.4782C76.7523 14.1709 77.7788 13.335 79.2572 13.335C79.6639 13.335 79.9544 13.379 80.2643 13.4229V10.2301C79.9996 10.1798 79.8188 10.1547 79.496 10.1547C78.192 10.1547 76.7071 10.9718 76.0809 12.7316H75.9841V10.4313H72.9176M39.6964 10.4187V22.6243H43.105V15.4656C43.105 15.1325 43.1437 14.7742 43.2664 14.4663C43.5504 13.7435 44.2348 12.9013 45.3387 12.9013C46.7138 12.9013 47.3593 14.0326 47.3593 15.6667V22.6243H50.7615V15.3776C50.7615 15.0571 50.8067 14.6737 50.9035 14.3908C51.1811 13.5738 51.9235 12.9013 52.95 12.9013C54.3444 12.9013 55.0094 14.0137 55.0094 15.937V22.6243H58.418V15.4342C58.418 11.6443 56.4426 10.1421 54.2089 10.1421C53.2211 10.1421 52.44 10.381 51.7363 10.8021C51.1424 11.1603 50.613 11.6631 50.1482 12.3231H50.0966C49.5607 11.0095 48.289 10.1421 46.6427 10.1421C44.5253 10.1421 43.5698 11.1855 42.9888 12.0779H42.9307V10.4187H39.6964Z" fill="#050D20"/>
</g>
<defs>
<clipPath id="clip0_21_50">
<rect width="121" height="28" fill="white" transform="translate(0 0.5)"/>
</clipPath>
</defs>
</svg>

<svg xmlns="http://www.w3.org/2000/svg" width="121" height="29" fill="none" viewBox="0 0 121 29"><g fill="#050d20" clip-path="url(#a)"><path d="M106.287 9.928c.671 0 1.226-.34 1.304-.78l.665-7.328c0-.723-.872-1.32-1.969-1.32-1.098 0-1.963.597-1.963 1.32l.665 7.328c.071.434.627.78 1.298.78m-4.067 2.287c.335-.565.31-1.206-.045-1.49L95.99 6.503c-.646-.364-1.608.076-2.156 1-.549.923-.452 1.954.187 2.312l6.85 3.105c.432.157 1.013-.144 1.349-.704m8.134-.006c.336.566.917.867 1.349.71l6.85-3.105c.645-.364.736-1.395.193-2.312-.548-.924-1.517-1.358-2.156-1l-6.184 4.224c-.355.283-.381.924-.052 1.483m-4.067 6.87c.671 0 1.226.34 1.304.779l.665 7.322c0 .73-.872 1.32-1.969 1.32-1.098 0-1.963-.59-1.963-1.32l.665-7.322c.071-.44.627-.78 1.298-.78m4.067-2.288c.336-.566.917-.861 1.349-.71l6.85 3.105c.645.364.736 1.395.193 2.319-.548.917-1.517 1.357-2.156.999l-6.184-4.217c-.355-.296-.381-.93-.052-1.496m-8.134-.006c.335.565.31 1.206-.045 1.49l-6.185 4.217c-.646.364-1.608-.076-2.156-1-.549-.924-.452-1.954.187-2.319l6.85-3.105c.432-.144 1.013.151 1.349.717m-34.945 1.478c0 .226-.02.458-.084.66-.264.848-1.162 1.558-2.285 1.558-.936 0-1.685-.522-1.685-1.615 0-1.678 1.898-2.143 4.054-2.13zm3.383-2.923c0-2.765-1.214-5.198-5.313-5.198-2.105 0-3.777.578-4.687 1.088l.665 2.224c.833-.515 2.163-.936 3.422-.936 2.078-.006 2.42 1.15 2.42 1.885v.176c-4.531-.006-7.404 1.521-7.404 4.639 0 1.904 1.459 3.683 3.996 3.683 1.562 0 2.866-.604 3.647-1.578h.078s.516 2.112 3.37 1.301c-.149-.88-.2-1.816-.2-2.941zM0 6.377S2.963 18.2 3.434 20.117c.556 2.237 1.55 3.067 4.416 2.507l1.853-7.328c.471-1.823.781-3.117 1.085-4.972h.051c.213 1.873.517 3.156.897 4.978 0 0 .756 3.325 1.137 5.072.387 1.748 1.465 2.847 4.274 2.25l4.409-16.247h-3.557l-1.505 7.027c-.406 2.043-.774 3.645-1.052 5.512h-.052c-.258-1.854-.587-3.388-.994-5.38l-1.568-7.159H9.122l-1.679 6.977c-.477 2.124-.916 3.834-1.2 5.637H6.19a212 212 0 0 0-1.09-5.907s-.994-4.99-1.343-6.713zm28.29 11.886c0 .226-.02.458-.085.66-.264.848-1.162 1.558-2.285 1.558-.936 0-1.685-.522-1.685-1.615 0-1.678 1.898-2.143 4.054-2.13zm3.388-2.923c0-2.765-1.213-5.198-5.313-5.198-2.104 0-3.776.578-4.687 1.088l.665 2.224c.833-.515 2.163-.936 3.422-.936 2.085-.006 2.42 1.15 2.42 1.885v.176c-4.538-.006-7.404 1.521-7.404 4.639 0 1.904 1.459 3.683 3.996 3.683 1.562 0 2.866-.604 3.648-1.578h.077s.517 2.112 3.377 1.301c-.149-.88-.2-1.816-.2-2.941zm5.65 3.834V6.377h-3.39v16.247h3.39zM81.671 6.377v11.986c0 1.653.322 2.81 1 3.52.6.622 1.582 1.018 2.757 1.018 1 0 1.988-.189 2.453-.352l-.045-2.577c-.349.082-.743.15-1.285.15-1.155 0-1.543-.722-1.543-2.205v-4.588h2.95v-3.111h-2.95v-3.84zm-8.754 4.042v12.205h3.499v-6.247c0-.34.019-.635.077-.899.258-1.307 1.285-2.143 2.763-2.143.407 0 .697.044 1.007.088V10.23a3.6 3.6 0 0 0-.768-.075c-1.304 0-2.789.817-3.415 2.577h-.097v-2.3h-3.066m-33.222-.013v12.205h3.409v-7.158c0-.333.039-.692.161-1 .284-.723.969-1.565 2.073-1.565 1.375 0 2.02 1.132 2.02 2.766v6.957h3.402v-7.246c0-.32.046-.704.142-.987.278-.817 1.02-1.49 2.047-1.49 1.394 0 2.06 1.113 2.06 3.036v6.687h3.408v-7.19c0-3.79-1.975-5.292-4.21-5.292-.987 0-1.768.239-2.472.66-.594.358-1.123.861-1.588 1.521h-.051c-.536-1.314-1.808-2.18-3.454-2.18-2.118 0-3.073 1.042-3.654 1.935h-.058v-1.66z"/></g><defs><clipPath id="a"><path fill="#fff" d="M0 .5h121v28H0z"/></clipPath></defs></svg>
